public/illustrations/_telescope.svg

<svg width="413" height="312" viewBox="0 0 413 312" fill="none" xmlns="http://www.w3.org/2000/svg">
<path d="M142.826 216.994L238.072 136.304C239.827 134.917 241.442 133.529 243.849 133.643C244.556 133.6 245.406 133.543 246.086 133.062C254.737 128.659 262 131.292 268.64 137.239C273.327 141.614 276.966 147.192 279.075 153.295C285.418 169.62 286.947 186.397 282.417 203.586C281.086 209.207 278.325 214.502 274.346 218.736C273.015 220.095 271.543 221.341 269.9 222.289C267.72 223.564 265.511 224.569 264.265 227.061C263.628 228.236 261.688 228.93 260.173 229.609C244.132 235.924 227.948 242.253 211.765 248.582L170.96 264.496C170.549 264.666 170.139 264.978 169.742 265.289C169.827 266.563 169.629 267.852 169.586 269.268C169.969 279.179 170.195 289.09 170.563 298.859C170.662 300.275 170.889 301.677 171.399 302.923C172.956 307.213 171.328 310.313 166.684 310.894C163.852 311.078 161.035 311.276 158.174 311.035L110.035 310.554L33.4933 309.676C24.9698 309.535 16.5879 309.379 8.06438 309.237C3.51945 309.11 0.815151 307.029 0.0930598 302.526C0.00810788 301.252 -0.0768434 299.978 0.121378 298.689C4.65215 272.85 14.3083 249.502 31.8509 229.595C43.3336 216.626 56.8551 206.644 73.5623 201.844C98.609 194.496 121.362 199.381 141.481 215.918C141.779 216.187 142.232 216.442 142.826 216.966V216.994ZM117.058 213.596C115.897 213.101 115.302 212.86 114.722 212.619C102.078 208.216 88.4572 208.117 75.8277 212.364C61.7965 216.838 50.4271 225.121 40.6435 235.853C26.7538 251.102 18.0179 268.999 12.9491 288.92C12.1562 291.95 11.6607 295.107 10.8678 298.137C15.8941 299.086 58.625 299.355 61.1169 298.477C61.3717 291.652 61.216 284.984 61.7682 278.428C62.9858 264.723 67.644 251.499 75.2472 239.931C82.8646 228.505 92.9314 219.882 106.269 215.734C109.596 214.658 112.98 214.29 117.044 213.455V213.596H117.058ZM197.989 184.373C196.375 185.76 195.298 186.539 194.222 187.459C186.832 193.632 179.582 199.933 172.192 206.092C155.541 220.251 138.876 234.282 122.226 248.44C120.866 249.389 119.96 250.72 119.366 252.32C118.686 254.925 118.445 257.629 118.474 260.319C118.743 264.27 120.781 267.257 123.783 269.763C124.236 270.16 124.831 270.542 125.539 270.641C126.105 270.598 126.813 270.556 127.365 270.372C129.574 269.381 131.924 268.503 134.133 267.654L214.342 236.207C215.319 235.853 216.267 235.372 217.372 234.876C205.195 220.364 199.957 203.543 197.861 184.67L197.989 184.373ZM131.131 226.848C123.585 224.229 115.203 224.073 107.571 226.848C97.179 230.516 89.5616 237.694 83.7849 246.741C73.888 262.16 70.9005 279.235 72.3872 297.302C72.4296 298.01 72.7695 298.689 72.9535 299.397C88.0608 300.374 156.334 300.657 159.817 299.723C159.435 289.812 159.633 279.872 158.797 269.423C148.844 273.345 139.443 277.097 130.055 280.991C128.965 281.628 127.705 281.855 126.431 281.94C125.156 282.025 123.868 281.826 122.707 281.331C117.029 279.15 112.484 274.775 109.978 269.126C107.317 263.349 107.501 257.375 108.506 251.343C108.789 249.191 109.511 247.166 110.516 245.396C111.677 243.612 113.122 241.956 114.891 240.851C118.403 238.204 121.617 235.301 124.987 232.512C126.856 230.827 128.739 229.142 131.287 226.99L131.131 226.863V226.848ZM274.53 178.992C273.468 173.669 272.69 168.331 271.203 163.177C269.646 156.891 266.715 151.128 262.552 146.159C256.719 139.447 250.645 140 246.34 147.801C244.811 150.463 243.735 153.365 242.942 156.395C239.488 170.667 240.776 185.774 246.51 199.437C248.224 203.869 250.914 207.947 254.383 211.118C259.225 215.621 263.869 215.168 267.777 209.801C269.065 207.876 270.212 205.809 271.061 203.628C274.233 195.898 274.814 187.488 274.672 178.978H274.53V178.992ZM250.432 222.035C248.025 219.925 245.746 217.801 243.749 215.38C241.739 212.817 239.997 210.099 238.539 207.352C231.389 193.632 229.548 178.865 230.808 163.588C230.936 161.308 231.361 159.156 231.729 156.013C230.115 157.259 229.024 158.038 228.09 158.816C223.12 162.979 218.306 167.552 213.039 171.46C209.655 173.952 208.749 177.279 208.424 180.989L208.551 182.971C208.792 195.02 212.784 206.106 217.896 216.824C220.515 222.049 224.097 226.905 228.486 230.884L250.475 222.19V222.049L250.432 222.035Z" fill="#102185"/>
<path d="M338.924 110.493C323.491 136.828 286.962 136.687 276.201 105.68C270.396 104.83 264.591 103.981 258.786 102.848C256.096 102.423 253.547 101.574 251.141 100.441C249.017 99.4498 247.035 97.8924 245.335 96.1934C240.663 90.8131 240.946 85.1496 245.619 79.911C248.167 77.0792 251.424 74.8138 255.105 73.6811C263.742 70.5663 272.662 70.8495 282.006 71.9822C290.077 61.0801 300.979 54.7087 314.996 56.2662C329.155 57.8236 337.792 67.0266 342.605 80.0525C346.853 80.4773 350.817 80.7605 354.923 81.3268C360.304 81.8932 365.401 83.8755 369.79 87.2735C374.179 90.8132 375.878 95.7687 373.613 100.158C372.48 102.282 370.781 104.122 368.941 105.68C364.551 109.219 359.313 110.352 353.791 110.635C348.977 110.918 344.021 110.635 339.066 110.635L338.924 110.493ZM331.845 99.733C333.827 92.2289 333.686 85.5744 330.712 79.0615C328.73 74.5307 325.049 70.8494 320.518 68.7256C315.987 66.6019 310.89 66.0355 306.076 67.3098C296.023 69.8583 290.077 76.796 286.82 86.4239C285.829 89.3972 285.546 92.6538 285.971 95.7687L331.703 99.733H331.845ZM288.095 106.671C292.909 115.024 299.422 119.272 308.483 118.989C315.279 118.989 323.208 114.458 325.19 109.927L288.236 106.671H288.095ZM276.768 81.8932C270.538 81.4684 264.308 81.4685 258.503 83.7339C256.096 84.4418 254.114 85.8577 252.84 87.9815C255.53 91.8043 265.582 94.6359 274.644 94.0696C275.352 90.1051 276.06 86.1408 276.768 81.8932ZM363.56 95.7687C357.614 91.0964 350.959 91.2379 344.163 90.9547C343.88 93.928 343.455 96.6182 343.172 99.4499C350.818 100.866 359.313 99.4498 363.56 95.627V95.7687Z" fill="#102185"/>
<path d="M331.703 186.808C331.703 172.508 335.951 161.181 345.012 151.978C358.321 138.669 378.143 136.404 393.859 147.447C396.266 149.146 398.39 151.27 397.399 154.527C396.974 156.084 396.125 157.358 394.992 158.349C393.859 159.34 392.302 160.048 390.745 160.19C387.771 160.473 384.94 161.181 382.249 162.314C374.321 165.853 368.94 171.517 368.374 180.578C368.091 184.118 369.082 187.516 371.347 190.348C373.471 193.038 376.728 194.878 380.126 195.445C383.665 196.153 387.346 196.011 390.886 195.162C394.426 194.312 397.682 192.613 400.372 190.206C400.939 189.781 401.364 189.357 401.788 188.932C403.771 187.233 405.894 186.242 408.443 187.516C409.576 188.082 410.567 188.932 411.275 190.065C411.983 191.197 412.407 192.33 412.407 193.746V196.011C409.151 212.435 400.514 224.753 384.232 230.133C368.94 235.23 355.631 230.7 344.587 219.231C336.234 210.453 331.561 198.984 331.703 186.808ZM377.719 152.261V151.27C374.887 150.987 371.914 150.987 369.082 151.27C364.834 151.695 360.728 153.111 357.189 155.518C353.649 157.783 350.676 161.04 348.552 164.721C340.34 178.313 340.198 192.188 347.844 206.064C351.1 212.01 356.197 216.541 362.427 219.231C366.675 221.214 371.347 222.063 375.878 221.355C385.506 219.939 392.444 214.701 397.258 206.63C397.682 205.781 397.965 204.789 398.249 203.94L394.426 205.214C388.621 207.055 382.391 207.197 376.586 205.639C364.693 202.383 356.764 192.613 357.472 180.012C358.038 170.384 362.852 163.022 370.215 157.217C372.48 155.376 375.028 153.96 377.577 152.403L377.719 152.261Z" fill="#102185"/>
<path d="M356.622 31.347C353.791 32.3381 351.667 33.1875 349.401 33.8954C348.127 34.3202 346.853 34.1786 345.579 33.6123C344.446 33.0459 343.455 32.0548 343.03 30.7806C342.464 29.6479 342.464 28.2319 343.03 26.9576C343.455 25.6834 344.304 24.6923 345.579 24.1259C346.57 23.5596 347.702 23.1348 348.694 22.7101C349.826 22.2853 350.817 21.8607 351.95 21.5775C352.233 19.8785 350.817 19.1705 350.109 18.3209C348.694 16.6219 347.136 15.0645 345.862 13.3654C345.154 12.5159 344.871 11.3833 344.871 10.2506C344.871 9.11792 345.296 8.12685 346.145 7.27734C346.853 6.42782 347.844 5.86134 348.977 5.71975C350.109 5.57817 351.242 5.71982 352.233 6.14458C353.366 6.71092 354.357 7.41885 355.348 8.26837C356.198 8.83471 356.906 9.54264 357.897 10.3922C358.038 8.55154 358.18 7.27734 358.463 5.86148C359.171 1.6139 361.436 -0.368445 364.693 0.0563126C367.666 0.481071 369.507 3.31279 369.082 7.13561C369.082 8.83464 368.799 10.3921 368.657 12.6575C370.073 12.0912 371.064 11.6664 372.055 11.3832C374.462 10.3921 376.869 9.68419 379.418 9.11785C380.692 8.83468 382.108 9.11785 383.382 9.82578C384.515 10.5337 385.365 11.6665 385.789 13.0823C386.497 16.0556 385.081 18.4626 381.683 19.4537C378.002 20.5864 374.604 22.0022 371.347 23.9844C371.631 24.8339 372.055 25.5419 372.622 26.3914C374.604 28.7984 376.728 31.0638 378.71 33.4707C379.559 34.3203 380.267 35.1696 380.834 36.1607C381.4 37.1518 381.542 38.2846 381.4 39.2757C381.258 40.4084 380.692 41.3995 379.984 42.1075C379.276 42.957 378.285 43.5233 377.152 43.6649C376.02 43.8064 374.887 43.6648 374.038 43.0985C372.905 42.3906 371.772 41.3994 370.781 40.4083C369.79 39.4172 368.94 38.4262 367.808 37.1519C367.525 38.143 367.241 38.8509 366.958 39.5588C365.684 42.5321 363.56 43.8065 361.012 43.3818C359.737 42.957 358.605 42.1073 357.897 41.1162C357.189 39.9836 356.764 38.7094 356.764 37.2935C356.906 35.4529 356.906 33.7539 357.047 31.347H356.622Z" fill="#102185"/>
<path d="M311.314 35.8774C307.633 36.4437 303.952 37.1516 300.271 37.4348C297.014 37.8595 293.616 37.8595 290.359 37.4348C285.121 36.7268 281.298 33.3289 278.183 29.2229C276.909 27.5239 275.776 25.5416 274.502 23.8426C272.236 20.7277 269.688 18.1791 265.723 17.4712C264.166 17.188 262.75 17.188 261.193 17.4712C257.228 18.6039 253.547 20.1614 249.583 21.5772C248.025 22.2851 246.468 22.7099 244.91 22.8515C243.919 22.8515 242.928 22.4267 242.22 21.8603C241.512 21.1524 240.946 20.3029 240.663 19.4534C240.238 18.4623 240.238 17.3296 240.663 16.1969C241.087 15.2058 241.795 14.2148 242.645 13.6484C245.193 11.9494 247.883 10.5335 250.857 9.40085C253.83 8.40975 256.803 7.70171 259.777 6.99378C262.75 6.28585 266.007 6.28585 268.98 6.99378C271.953 7.70171 274.785 9.25913 277.05 11.3829C279.74 13.9315 282.147 16.7633 284.413 19.595C284.838 20.1613 285.262 20.8693 285.687 21.5772C288.66 26.5327 293.05 27.9486 298.43 27.0991C302.394 26.3912 306.217 25.6831 310.182 25.4C312.305 25.4 314.429 25.8248 316.411 26.6743C317.544 27.099 318.535 27.9485 319.102 29.0812C319.668 30.2139 319.809 31.4881 319.526 32.6208C318.818 35.1694 316.978 36.4438 314.004 36.3022C313.155 36.3022 312.164 36.1605 311.314 36.0189V35.7358V35.8774Z" fill="#102185"/>
<path d="M315.845 158.916C315.845 162.738 313.155 165.57 309.757 165.429C308.341 165.429 307.067 164.862 306.217 163.871C305.226 162.88 304.801 161.606 304.801 160.19C304.801 156.65 307.775 153.394 310.748 153.394C312.164 153.394 313.58 154.102 314.429 155.093C315.42 156.084 315.845 157.5 315.845 158.916Z" fill="#102185"/>
<path d="M239.247 118.847C239.247 120.404 238.539 121.962 237.406 123.094C236.274 124.227 234.858 124.935 233.159 125.077C230.044 125.077 228.062 123.094 227.92 119.696C227.778 118.847 227.92 118.139 227.92 117.289C228.062 116.582 228.486 115.874 228.911 115.166C229.336 114.599 230.044 114.033 230.752 113.608C231.46 113.183 232.168 113.042 233.017 112.9C233.867 112.9 234.575 112.9 235.283 113.183C235.99 113.467 236.698 113.891 237.265 114.316C237.831 114.883 238.256 115.59 238.681 116.298C238.964 117.006 239.105 117.856 239.105 118.564L239.247 118.847Z" fill="#102185"/>
<path d="M384.657 114.883C384.657 113.326 385.365 112.051 386.356 110.919C387.347 109.786 388.763 109.22 390.32 109.22C391.877 109.22 393.293 109.927 394.426 110.919C395.559 112.051 396.125 113.467 395.983 115.025C395.983 116.582 395.276 117.998 394.284 119.131C393.152 120.263 391.736 120.83 390.178 120.688C388.763 120.688 387.347 119.838 386.356 118.847C385.365 117.715 384.798 116.299 384.798 114.883H384.657Z" fill="#102185"/>
</svg>

<svg xmlns="http://www.w3.org/2000/svg" width="413" height="312" fill="none" viewBox="0 0 413 312"><path fill="#102185" d="m142.826 216.994 95.246-80.69c1.755-1.387 3.37-2.775 5.777-2.661.707-.043 1.557-.1 2.237-.581 8.651-4.403 15.914-1.77 22.554 4.177a40 40 0 0 1 10.435 16.056c6.343 16.325 7.872 33.102 3.342 50.291-1.331 5.621-4.092 10.916-8.071 15.15-1.331 1.359-2.803 2.605-4.446 3.553-2.18 1.275-4.389 2.28-5.635 4.772-.637 1.175-2.577 1.869-4.092 2.548-16.041 6.315-32.225 12.644-48.408 18.973l-40.805 15.914c-.411.17-.821.482-1.218.793.085 1.274-.113 2.563-.156 3.979.383 9.911.609 19.822.977 29.591.099 1.416.326 2.818.836 4.064 1.557 4.29-.071 7.39-4.715 7.971-2.832.184-5.649.382-8.51.141l-48.139-.481-76.542-.878c-8.523-.141-16.905-.297-25.429-.439-4.545-.127-7.249-2.208-7.97-6.711-.086-1.274-.17-2.548.027-3.837 4.531-25.839 14.187-49.187 31.73-69.094 11.483-12.969 25.004-22.951 41.711-27.751 25.047-7.348 47.8-2.463 67.919 14.074.298.269.751.524 1.345 1.048zm-25.768-3.398c-1.161-.495-1.756-.736-2.336-.977-12.644-4.403-26.265-4.502-38.894-.255-14.032 4.474-25.4 12.757-35.184 23.489-13.89 15.249-22.626 33.146-27.695 53.067-.793 3.03-1.288 6.187-2.081 9.217 5.026.949 47.757 1.218 50.249.34.255-6.825.099-13.493.651-20.049 1.218-13.705 5.876-26.929 13.48-38.497 7.617-11.426 17.683-20.049 31.021-24.197 3.327-1.076 6.711-1.444 10.775-2.279v.141zm80.931-29.223c-1.614 1.387-2.691 2.166-3.767 3.086-7.39 6.173-14.64 12.474-22.03 18.633-16.651 14.159-33.316 28.19-49.966 42.348-1.36.949-2.266 2.28-2.86 3.88-.68 2.605-.921 5.309-.892 7.999.269 3.951 2.307 6.938 5.309 9.444.453.397 1.048.779 1.756.878.566-.043 1.274-.085 1.826-.269 2.209-.991 4.559-1.869 6.768-2.718l80.209-31.447c.977-.354 1.925-.835 3.03-1.331-12.177-14.512-17.415-31.333-19.511-50.206zm-66.858 42.475c-7.546-2.619-15.928-2.775-23.56 0-10.392 3.668-18.01 10.846-23.786 19.893-9.897 15.419-12.885 32.494-11.398 50.561.043.708.382 1.387.567 2.095 15.107.977 83.38 1.26 86.863.326-.382-9.911-.184-19.851-1.02-30.3-9.953 3.922-19.354 7.674-28.742 11.568-1.09.637-2.35.864-3.624.949a8.15 8.15 0 0 1-3.724-.609c-5.678-2.181-10.223-6.556-12.729-12.205-2.661-5.777-2.477-11.751-1.472-17.783a16.4 16.4 0 0 1 2.01-5.947c1.161-1.784 2.606-3.44 4.375-4.545 3.512-2.647 6.726-5.55 10.096-8.339a242 242 0 0 1 6.3-5.522l-.156-.127zm143.399-47.856c-1.062-5.323-1.84-10.661-3.327-15.815a42.15 42.15 0 0 0-8.651-17.018c-5.833-6.712-11.907-6.159-16.212 1.642-1.529 2.662-2.605 5.564-3.398 8.594-3.454 14.272-2.166 29.379 3.568 43.042 1.714 4.432 4.404 8.51 7.873 11.681 4.842 4.503 9.486 4.05 13.394-1.317 1.288-1.925 2.435-3.992 3.284-6.173 3.172-7.73 3.753-16.14 3.611-24.65h-.142zm-24.098 43.043c-2.407-2.11-4.686-4.234-6.683-6.655a54.3 54.3 0 0 1-5.21-8.028c-7.15-13.72-8.991-28.487-7.731-43.764.128-2.28.553-4.432.921-7.575-1.614 1.246-2.705 2.025-3.639 2.803-4.97 4.163-9.784 8.736-15.051 12.644-3.384 2.492-4.29 5.819-4.615 9.529l.127 1.982c.241 12.049 4.233 23.135 9.345 33.853 2.619 5.225 6.201 10.081 10.59 14.06l21.989-8.694v-.141zM338.924 110.493c-15.433 26.335-51.962 26.194-62.723-4.813-5.805-.85-11.61-1.699-17.415-2.832-2.69-.425-5.239-1.274-7.645-2.407-2.124-.991-4.106-2.549-5.806-4.248-4.672-5.38-4.389-11.043.284-16.282 2.548-2.832 5.805-5.097 9.486-6.23 8.637-3.115 17.557-2.831 26.901-1.699 8.071-10.902 18.973-17.273 32.99-15.716 14.159 1.558 22.796 10.76 27.609 23.786 4.248.425 8.212.708 12.318 1.275 5.381.566 10.478 2.549 14.867 5.947 4.389 3.54 6.088 8.495 3.823 12.884-1.133 2.124-2.832 3.964-4.672 5.522-4.39 3.539-9.628 4.672-15.15 4.955-4.814.283-9.77 0-14.725 0zm-7.079-10.76c1.982-7.504 1.841-14.159-1.133-20.672-1.982-4.53-5.663-8.212-10.194-10.335s-9.628-2.69-14.442-1.416c-10.053 2.548-15.999 9.486-19.256 19.114-.991 2.973-1.274 6.23-.849 9.345l45.732 3.964zm-43.75 6.938c4.814 8.353 11.327 12.601 20.388 12.318 6.796 0 14.725-4.531 16.707-9.062l-36.954-3.256zm-11.327-24.778c-6.23-.425-12.46-.424-18.265 1.84-2.407.709-4.389 2.125-5.663 4.248 2.69 3.823 12.742 6.655 21.804 6.089.708-3.965 1.416-7.93 2.124-12.177M363.56 95.77c-5.946-4.673-12.601-4.531-19.397-4.814-.283 2.973-.708 5.663-.991 8.495 7.646 1.416 16.141 0 20.388-3.823zM331.703 186.808c0-14.3 4.248-25.627 13.309-34.83 13.309-13.309 33.131-15.574 48.847-4.531 2.407 1.699 4.531 3.823 3.54 7.08a7.7 7.7 0 0 1-2.407 3.822c-1.133.991-2.69 1.699-4.247 1.841a28.8 28.8 0 0 0-8.496 2.124c-7.928 3.539-13.309 9.203-13.875 18.264-.283 3.54.708 6.938 2.973 9.77 2.124 2.69 5.381 4.53 8.779 5.097 3.539.708 7.22.566 10.76-.283a21.86 21.86 0 0 0 9.486-4.956c.567-.425.992-.849 1.416-1.274 1.983-1.699 4.106-2.69 6.655-1.416a7 7 0 0 1 2.832 2.549c.708 1.132 1.132 2.265 1.132 3.681v2.265c-3.256 16.424-11.893 28.742-28.175 34.122-15.292 5.097-28.601.567-39.645-10.902-8.353-8.778-13.026-20.247-12.884-32.423m46.016-34.547v-.991a44 44 0 0 0-8.637 0c-4.248.425-8.354 1.841-11.893 4.248-3.54 2.265-6.513 5.522-8.637 9.203-8.212 13.592-8.354 27.467-.708 41.343 3.256 5.946 8.353 10.477 14.583 13.167 4.248 1.983 8.92 2.832 13.451 2.124 9.628-1.416 16.566-6.654 21.38-14.725.424-.849.707-1.841.991-2.69l-3.823 1.274c-5.805 1.841-12.035 1.983-17.84.425-11.893-3.256-19.822-13.026-19.114-25.627.566-9.628 5.38-16.99 12.743-22.795 2.265-1.841 4.813-3.257 7.362-4.814zM356.622 31.347c-2.831.991-4.955 1.84-7.221 2.548-1.274.425-2.548.284-3.822-.283-1.133-.566-2.124-1.557-2.549-2.831-.566-1.133-.566-2.55 0-3.823.425-1.275 1.274-2.266 2.549-2.832.991-.566 2.123-.991 3.115-1.416 1.132-.425 2.123-.85 3.256-1.133.283-1.699-1.133-2.407-1.841-3.256-1.415-1.7-2.973-3.257-4.247-4.956-.708-.85-.991-1.982-.991-3.114q0-1.7 1.274-2.974a4.38 4.38 0 0 1 2.832-1.557c1.132-.142 2.265 0 3.256.425 1.133.566 2.124 1.274 3.115 2.123.85.567 1.558 1.275 2.549 2.124.141-1.84.283-3.115.566-4.53.708-4.248 2.973-6.23 6.23-5.806 2.973.425 4.814 3.257 4.389 7.08 0 1.699-.283 3.256-.425 5.522 1.416-.567 2.407-.992 3.398-1.275 2.407-.99 4.814-1.699 7.363-2.265 1.274-.283 2.69 0 3.964.708 1.133.708 1.983 1.84 2.407 3.256.708 2.974-.708 5.38-4.106 6.372-3.681 1.132-7.079 2.548-10.336 4.53.284.85.708 1.558 1.275 2.407 1.982 2.407 4.106 4.673 6.088 7.08.849.85 1.557 1.699 2.124 2.69.566.99.708 2.124.566 3.115-.142 1.132-.708 2.124-1.416 2.831a4.38 4.38 0 0 1-2.832 1.558c-1.132.141-2.265 0-3.114-.566-1.133-.708-2.266-1.7-3.257-2.69-.991-.992-1.841-1.983-2.973-3.257-.283.991-.567 1.699-.85 2.407-1.274 2.973-3.398 4.248-5.946 3.823-1.275-.425-2.407-1.275-3.115-2.266-.708-1.132-1.133-2.407-1.133-3.822.142-1.841.142-3.54.283-5.947zM311.314 35.877c-3.681.567-7.362 1.275-11.043 1.558a38.7 38.7 0 0 1-9.912 0c-5.238-.708-9.061-4.106-12.176-8.212-1.274-1.7-2.407-3.681-3.681-5.38-2.266-3.115-4.814-5.664-8.779-6.372a12.2 12.2 0 0 0-4.53 0c-3.965 1.133-7.646 2.69-11.61 4.106q-2.336 1.062-4.673 1.274c-.991 0-1.982-.424-2.69-.99-.708-.709-1.274-1.558-1.557-2.408-.425-.99-.425-2.123 0-3.256.424-.991 1.132-1.982 1.982-2.549a41 41 0 0 1 8.212-4.247c2.973-.991 5.946-1.7 8.92-2.407a20.2 20.2 0 0 1 9.203 0c2.973.708 5.805 2.265 8.07 4.389 2.69 2.549 5.097 5.38 7.363 8.212.425.566.849 1.274 1.274 1.982 2.973 4.956 7.363 6.372 12.743 5.522 3.964-.708 7.787-1.416 11.752-1.699 2.123 0 4.247.425 6.229 1.274a4.97 4.97 0 0 1 2.691 2.407c.566 1.133.707 2.407.424 3.54-.708 2.548-2.548 3.823-5.522 3.681-.849 0-1.84-.142-2.69-.283v-.283zM315.845 158.916c0 3.822-2.69 6.654-6.088 6.513-1.416 0-2.69-.567-3.54-1.558-.991-.991-1.416-2.265-1.416-3.681 0-3.54 2.974-6.796 5.947-6.796 1.416 0 2.832.708 3.681 1.699.991.991 1.416 2.407 1.416 3.823M239.247 118.847c0 1.557-.708 3.115-1.841 4.247-1.132 1.133-2.548 1.841-4.247 1.983-3.115 0-5.097-1.983-5.239-5.381-.142-.849 0-1.557 0-2.407.142-.707.566-1.415.991-2.123.425-.567 1.133-1.133 1.841-1.558s1.416-.566 2.265-.708c.85 0 1.558 0 2.266.283a9 9 0 0 1 1.982 1.133c.566.567.991 1.274 1.416 1.982.283.708.424 1.558.424 2.266zM384.657 114.883c0-1.557.708-2.832 1.699-3.964s2.407-1.699 3.964-1.699 2.973.707 4.106 1.699c1.133 1.132 1.699 2.548 1.557 4.106 0 1.557-.707 2.973-1.699 4.106-1.132 1.132-2.548 1.699-4.106 1.557-1.415 0-2.831-.85-3.822-1.841-.991-1.132-1.558-2.548-1.558-3.964z"/></svg>
